!!!COM:	Compere, Loyset
!!!CDT:	~1445///-1518/08/16
!!!OTL:	Ven&eacute;s regretz ven&eacute;s il en est heure
!!!AGN:	Song; Chanson
!!!SCT:	Com3045
!!!SCA:	Com3045
!!!voices:	3
**kern	**kern	**kern
*staff3	*staff2	*staff1
*Ivox	*Ivox	*Ivox
*I"Bassus	*I"Tenor	*I"Superius
*I'B	*I'T	*I'S
*>[A,B]	*>[A,B]	*>[A,B]
*>A	*>A	*>A
*clefF4	*clefGv2	*clefG2
*k[b-]	*k[b-]	*k[b-]
*M2/1	*M2/1	*M2/1
*met(C|)	*met(C|)	*met(C|)
=1-	=1-	=1-
1.C	0c	0r
2D	.	.
=2	=2	=2
1E	1c	0r
1F	1A	.
=3	=3	=3
1.G	2G	0r
.	1B-	.
4F	4A	.
4G	4G	.
=4	=4	=4
1A	0F	0cc
2r	.	.
2A	.	.
=5	=5	=5
2A	1r	1cc
4G	.	.
4F	.	.
1c	1F	1a
=6	=6	=6
1B-	1G	2g
.	.	1b-
1G	1B-	.
.	.	4a
.	.	4g
=7	=7	=7
0D	0A	1f
.	.	2r
.	.	2f
=8	=8	=8
2.d	1.G	1g
4c	.	.
2B-	.	1b-
4A	4A	.
4G	4B-	.
=9	=9	=9
0F	1c	1a
.	2r	1a
.	[2c	.
=10	=10	=10
2C	2c]	2g
2.G	1B-	4f
.	.	4e
.	.	1d
4A	.	.
2B-	4A	.
.	4G	.
=11	=11	=11
1BB-	2.F	1d
.	4G	.
2F	4A	2c
.	4B-	.
2C	2c	[2g
=12	=12	=12
1D	4B-	2g]
.	4A	.
.	4G	1f
.	4F	.
1C	1G	.
.	.	2e
=13	=13	=13
1r	0F	[0f
1F	.	.
=14	=14	=14
4F	1r	0f]
4G	.	.
4A	.	.
4B-	.	.
2c	1F	.
[2A	.	.
=15	=15	=15
2A]	1c	0r
4G	.	.
4F	.	.
1E	1c	.
=16	=16	=16
1.D	1d	1r
.	1d	1f
2E	.	.
=17	=17	=17
0F	1.c	1cc
.	.	1cc
.	4B-	.
.	4A	.
=18	=18	=18
0r	2B-	1dd
.	4A	.
.	4G	.
.	2F	1dd
.	2G	.
=19	=19	=19
1r	1.A	1.cc
1F	.	.
.	4G	4b-
.	4F	4a
=20	=20	=20
1E	1G	2b-
.	.	4a
.	.	4g
2D	1A	1f
2F	.	.
=21	=21	=21
2E	2B-	1g
2C	1c	.
1F	.	[1a
.	4B-	.
.	4A	.
=22	=22	=22
1D	1B-	2a]
.	.	4g
.	.	4f
1E	1B-	1g
=23	=23	=23
1F	0A	[0a
2r	.	.
2F	.	.
=24	=24	=24
1F	1r	0a]
[1F	1c	.
=25	=25	=25
1F]	1c	1r
2r	1c	[1a
[2F	.	.
=26	=26	=26
2F]	0d	1a]
4E	.	.
4D	.	.
1D	.	1a
=27	=27	=27
0G	1d	0b-
.	1e	.
=28	=28	=28
1F	1f	1a
2C	2e	2g
[2D	[2d	[2f
=29	=29	=29
2D]	4d]	4f]
.	4c	4e
2E	1c	4d
.	.	4c
2F	.	1d
2G	2Bni	.
=30	=30	=30
2C	1c	0c
2.F	.	.
.	1r	.
4G	.	.
[2A	.	.
=31	=31	=31
2A]	0c	1r
4G	.	.
4F	.	.
2E	.	1cc
2C	.	.
=32	=32	=32
1.G	1d	2.b-
.	.	4a
.	2e	2g
2F	[2f	[2a
=33	=33	=33
4D	4f]	4a]
4E	4e	4g
4F	2d	2f
4G	.	.
2A	2c	2e
[2G	[2B-	[2g
=34	=34	=34
2G]	4B-]	2g]
.	4A	.
2A	2F	1f
1B-	1G	.
.	.	2e
=35	=35	=35
2BB-	1F	1f
2D	.	.
2C	1A	1cc
2F	.	.
=36	=36	=36
2G	2G	2b-
1A	1F	1a
2B-	4E	4g
.	4D	4f
=37	=37	=37
2c	[0Cl	[0el
2G	.	.
1A	.	.
=38	=38	=38
0Gl	0C]	0e]
!!LO:LB:i:g=z
=39||	=39||	=39||
*>B	*>B	*>B
*clefF4	*clefGv2	*clefG2
*k[b-]	*k[b-]	*k[b-]
*M2/1	*M2/1	*M2/1
*met(C|)	*met(C|)	*met(C|)
!!section: Car aujourd'huy
!!!OMD: Car aujourd'huy
0F	0c	0r
=40	=40	=40
0G	1B-	0r
.	1B-	.
=41	=41	=41
1D	1A	0f
4D	[1d	.
4E	.	.
4F	.	.
4G	.	.
=42	=42	=42
1A	2d]	1e
.	4c#i	.
.	4Bni	.
2r	1c#i	1e
2A	.	.
=43	=43	=43
2.B-	2.d	1d
4A	4c	.
2G	2B-	[1g
4F	4A	.
4E	4G	.
=44	=44	=44
1D	1A	2g]
.	.	4f#i
.	.	4e
2r	1A	1f#i
2D	.	.
=45	=45	=45
2.E-i	1G	2.g
4D	.	4f
2C	[1c	2e
4BB-	.	4d
4AA	.	4c
=46	=46	=46
1GG	2c]	1d
.	4Bni	.
.	4A	.
2r	1Bni	1d
2G	.	.
=47	=47	=47
2.A	2.c	1c
4G	4B-	.
2F	2A	[1f
4E	4G	.
4D	4F	.
=48	=48	=48
1C	0G	2f]
.	.	4e
.	.	4d
2r	.	1e
2C	.	.
=49	=49	=49
1D	2.F	2.f
.	4G	4e
2AA	2A	2f
[2C	[2G	[2e
=50	=50	=50
2C]	4G]	2e]
.	4F	.
2BB-	2D	1d
1AA	1E	.
.	.	2c#i
=51	=51	=51
1r	1D	0d
[1BB-	2r	.
.	2D	.
=52	=52	=52
1BB-]	1F	1r
1BB-	1G	1d
=53	=53	=53
0AA	0A	1c
.	.	1c
=54	=54	=54
0D	1r	0f
.	1A	.
=55	=55	=55
0D	1A	1r
.	1A	1f
=56	=56	=56
0E	1G	1g
.	1G	1g
=57	=57	=57
1D	1F	1a
2r	2E	2g
[2D	[2F	[2a
=58	=58	=58
4D]	2F]	2a]
4E	.	.
2F	4E	4g
.	4D	4f
2G	2C	[1e
2B-	2G	.
=59	=59	=59
1A	2A	2e]
.	1c	4d
.	.	4c
1G	.	1d
.	2Bni	.
=60	=60	=60
1r	0c	2c
.	.	2g
[1F	.	2a
.	.	[2cc
=61	=61	=61
1F]	1c	2cc]
.	.	4b-
.	.	4a
1D	1d	4b-
.	.	4a
.	.	4g
.	.	4f
=62	=62	=62
1A	2.c	2.e
.	4d	4f
2G	2e	2g
2F	[2f	[2a
=63	=63	=63
2.D	4f]	4a]
.	4e	4g
.	2d	4a
4E	.	4b-
2F	4c	2a
.	4B-	.
2C	2c	[2g
=64	=64	=64
1D	4B-	2g]
.	4A	.
.	4G	1f
.	4F	.
1C	1G	.
.	.	2e
=65	=65	=65
0Fl	0Fl	0fl
==	==	==
*-	*-	*-
!!!RDF**kern: l=long note in original notation
!!!RDF**kern: i=editorial accidental
!!!ENC:	Megan K. Eagen 2013/11/29
!!!END:	2013/11/29/
!!!EED:	Jesse Rodin
!!!EEV:	2014/02/23/
!!!ONB:	Translated from MusicXML and edited on 2014/02/23/ by Craig Sapp
!!muse2ps: C^@{COM}^i2I150v95,95,150Q16
